svg/monochrome/behance.svg

<svg xmlns="http://www.w3.org/2000/svg" viewBox="0 0 24 24"><path class="uim-primary" d="M10.39649,11.51891h-.10828l.2406-.13233a2.33344,2.33344,0,0,0,1.09467-1.20294,3.46406,3.46406,0,0,0,.14435-1.69617,2.81489,2.81489,0,0,0-1.73218-2.2976,4.72807,4.72807,0,0,0-1.92474-.38495H2V18.15911h5.5816a9.44806,9.44806,0,0,0,1.58789-.13233A3.46453,3.46453,0,0,0,11.828,16.05394a3.74136,3.74136,0,0,0,.30072-2.40588A2.69448,2.69448,0,0,0,10.39649,11.51891ZM4.89905,7.95818H7.30494a4.66911,4.66911,0,0,1,1.20294.15637,1.03453,1.03453,0,0,1,.79394.92627,1.90064,1.90064,0,0,1,0,.74585.99851.99851,0,0,1-.51727.6496,2.47826,2.47826,0,0,1-1.20294.26464H4.875ZM9.55445,14.863a1.39542,1.39542,0,0,1-1.20294,1.1308,4.36332,4.36332,0,0,1-.79395.08417H4.875V12.806H7.738a2.71932,2.71932,0,0,1,.90222.15637,1.31129,1.31129,0,0,1,.91425,1.20294A2.54885,2.54885,0,0,1,9.55445,14.863Zm12.43835-.806c.012-.024.012-.04809-.024-.024V12.69774a4.379,4.379,0,0,0-.409-1.76831A3.729,3.729,0,0,0,19.63508,9.077a5.13707,5.13707,0,0,0-2.94721-.28876A3.88553,3.88553,0,0,0,13.476,11.60308a6.7005,6.7005,0,0,0-.14435,3.46447,3.50091,3.50091,0,0,0,.86609,1.73224,4.5232,4.5232,0,0,0,2.06909,1.20294,5.45037,5.45037,0,0,0,2.32166.1203,4.00639,4.00639,0,0,0,2.51416-1.32324,3.16514,3.16514,0,0,0,.70971-1.20294.523.523,0,0,0,.08417-.34888H19.53882a.12033.12033,0,0,0-.1203.07221,1.7081,1.7081,0,0,1-1.20294.90216,2.68148,2.68148,0,0,1-1.08264,0,1.90049,1.90049,0,0,1-1.43146-1.05853A2.40582,2.40582,0,0,1,15.497,14.442v-.38495Zm-6.3515-1.73217a4.51542,4.51542,0,0,1,.19245-.56543,1.73239,1.73239,0,0,1,1.57586-1.08264,2.28663,2.28663,0,0,1,1.04657.14434,1.7803,1.7803,0,0,1,1.13074,1.44355v.25262l-3.94562.03607A2.09862,2.09862,0,0,1,15.6413,12.32488Zm4.4148-6.01471H15.05189V7.75371l5.00421-.012Z" data-name="Brand Logos"/></svg>

<svg xmlns="http://www.w3.org/2000/svg" viewBox="0 0 24 24"><path class="uim-primary" d="M10.396 11.519h-.108l.24-.132a2.333 2.333 0 0 0 1.095-1.203 3.464 3.464 0 0 0 .145-1.697 2.815 2.815 0 0 0-1.732-2.297 4.728 4.728 0 0 0-1.925-.385H2v12.354h5.582a9.448 9.448 0 0 0 1.587-.132 3.465 3.465 0 0 0 2.659-1.973 3.741 3.741 0 0 0 .3-2.406 2.694 2.694 0 0 0-1.732-2.13ZM4.9 7.959h2.406a4.67 4.67 0 0 1 1.203.156 1.035 1.035 0 0 1 .794.926 1.9 1.9 0 0 1 0 .746.999.999 0 0 1-.517.65 2.478 2.478 0 0 1-1.203.264H4.875Zm4.655 6.904a1.395 1.395 0 0 1-1.202 1.13 4.363 4.363 0 0 1-.794.085H4.875v-3.272h2.863a2.72 2.72 0 0 1 .902.156 1.311 1.311 0 0 1 .914 1.203 2.549 2.549 0 0 1 0 .698Zm12.439-.806c.012-.024.012-.048-.024-.024v-1.335a4.379 4.379 0 0 0-.41-1.769 3.729 3.729 0 0 0-1.924-1.852 5.137 5.137 0 0 0-2.947-.289 3.886 3.886 0 0 0-3.212 2.815 6.7 6.7 0 0 0-.144 3.465 3.5 3.5 0 0 0 .866 1.732 4.523 4.523 0 0 0 2.069 1.203 5.45 5.45 0 0 0 2.321.12 4.006 4.006 0 0 0 2.515-1.323 3.165 3.165 0 0 0 .71-1.203.523.523 0 0 0 .084-.349h-2.358a.12.12 0 0 0-.12.072 1.708 1.708 0 0 1-1.203.902 2.681 2.681 0 0 1-1.083 0 1.9 1.9 0 0 1-1.432-1.058 2.406 2.406 0 0 1-.204-.722v-.385Zm-6.352-1.732a4.515 4.515 0 0 1 .193-.566 1.732 1.732 0 0 1 1.576-1.082 2.287 2.287 0 0 1 1.046.144 1.78 1.78 0 0 1 1.13 1.444v.252l-3.945.036a2.099 2.099 0 0 1 0-.228Zm4.415-6.015h-5.004v1.444l5.004-.012Z"/></svg>
